storage/app/icons/phosphoricons/light/linkedin-logo-light.svg

<svg xmlns="http://www.w3.org/2000/svg" fill="currentColor" viewBox="0 0 256 256"><path d="M216 26H40a14 14 0 0 0-14 14v176a14 14 0 0 0 14 14h176a14 14 0 0 0 14-14V40a14 14 0 0 0-14-14m2 190a2 2 0 0 1-2 2H40a2 2 0 0 1-2-2V40a2 2 0 0 1 2-2h176a2 2 0 0 1 2 2ZM94 112v64a6 6 0 0 1-12 0v-64a6 6 0 0 1 12 0m88 28v36a6 6 0 0 1-12 0v-36a22 22 0 0 0-44 0v36a6 6 0 0 1-12 0v-64a6 6 0 0 1 12 0v2.11A34 34 0 0 1 182 140M98 84a10 10 0 1 1-10-10 10 10 0 0 1 10 10"/></svg>

<svg xmlns="http://www.w3.org/2000/svg" viewBox="0 0 256 256" fill="currentColor"><path d="M216,26H40A14,14,0,0,0,26,40V216a14,14,0,0,0,14,14H216a14,14,0,0,0,14-14V40A14,14,0,0,0,216,26Zm2,190a2,2,0,0,1-2,2H40a2,2,0,0,1-2-2V40a2,2,0,0,1,2-2H216a2,2,0,0,1,2,2ZM94,112v64a6,6,0,0,1-12,0V112a6,6,0,0,1,12,0Zm88,28v36a6,6,0,0,1-12,0V140a22,22,0,0,0-44,0v36a6,6,0,0,1-12,0V112a6,6,0,0,1,12,0v2.11A34,34,0,0,1,182,140ZM98,84A10,10,0,1,1,88,74,10,10,0,0,1,98,84Z"/></svg>
